X:1
T:I Won't Be a Nun
M:2/4
L:1/8
K:C
 GG| c/2c/2 BG G| AG FE| D2 GG| c2 AG| AG GG| FE DC| C2 EG| c2 GG|\
 E2 A2| GG EE| E2 Ac| c2 cG| Ac Bc| cc Bc| c2||

